X: 36
T: Take her away down to the Quay, We don't want her at all today
B:Green and Gold, Steve MacDonogh, Brandon, 1983
N:a Dingle Wren tune
N:transposed from Eb
Z:Paul de Grae <sullgrae@IOL.IE> irtrad-l 2001-12-20
M:2/4
L:1/8
K:G
DG B2|cA B2|BA/G/ FG|AG FE|
DG B2|cA B2|BA/G/ FG|AG G2:|
d2 Bd|ec d2|BA/G/ FG|AG ED|
d2 Bd|ec d2|BA/G/ FG|AG G2|
d2 Bd|ec d2|BA/G/ FG|AG FE|
DG B2|cA B2|BA/G/ FG|AG G2||

%%sep 1 1 500

